X: 3
T: The Humours Of Lisheen
R: jig
M: 6/8
L: 1/8
K: Gmaj
efg edB|c2A BGE|GFG BdB|BAG ABd|
efg edB|c2A BGE|DEG AGA|BGF G2G:|
GBd gfg|agf edB|g2d ege|dBA ABd|
efg edB|c2A BGE|DEG AGA|BGF G2G:|


Tune 1600	Setting 15012

